icon/radio-border.svg

<svg xmlns="http://www.w3.org/2000/svg" width="12" height="12" fill="none"><path fill="gray" fill-rule="evenodd" d="M8 0H4v1H2v1H1v2H0v4h1v2h1V8H1V4h1V2h2V1h4v1h2V1H8z" clip-rule="evenodd" style="fill:#191919;fill-opacity:1"/><path fill="#000" fill-rule="evenodd" d="M8 1H4v1H2v2H1v4h1v1h1V8H2V4h1V3h1V2h4v1h2V2H8z" clip-rule="evenodd"/><path fill="#DFDFDF" fill-rule="evenodd" d="M9 3h1v1H9zm1 5V4h1v4zm-2 2V9h1V8h1v2zm-4 0v1h4v-1zm0 0V9H2v1z" clip-rule="evenodd" style="fill:#525252;fill-opacity:1"/><path fill="#fff" fill-rule="evenodd" d="M11 2h-1v2h1v4h-1v2H8v1H4v-1H2v1h2v1h4v-1h2v-1h1V8h1V4h-1z" clip-rule="evenodd" style="fill:#363636;fill-opacity:1"/><path fill="#fff" fill-rule="evenodd" d="M4 2h4v1h1v1h1v4H9v1H8v1H4V9H3V8H2V4h1V3h1z" clip-rule="evenodd"/></svg>

<svg width="12" height="12" viewBox="0 0 12 12" fill="none" xmlns="http://www.w3.org/2000/svg">
<path fill-rule="evenodd" clip-rule="evenodd" d="M8 0H4V1H2V2H1V4H0V8H1V10H2V8H1V4H2V2H4V1H8V2H10V1H8V0Z" fill="#808080"/>
<path fill-rule="evenodd" clip-rule="evenodd" d="M8 1H4V2H2V3V4H1V8H2V9H3V8H2V4H3V3H4V2H8V3H10V2H8V1Z" fill="black"/>
<path fill-rule="evenodd" clip-rule="evenodd" d="M9 3H10V4H9V3ZM10 8V4H11V8H10ZM8 10V9H9V8H10V9V10H8ZM4 10V11H8V10H4ZM4 10V9H2V10H4Z" fill="#DFDFDF"/>
<path fill-rule="evenodd" clip-rule="evenodd" d="M11 2H10V4H11V8H10V10H8V11H4V10H2V11H4V12H8V11H10V10H11V8H12V4H11V2Z" fill="white"/>
<path fill-rule="evenodd" clip-rule="evenodd" d="M4 2H8V3H9V4H10V8H9V9H8V10H4V9H3V8H2V4H3V3H4V2Z" fill="white"/>
</svg>
